!!!SOCIAL_FUNCTION:	songs of games played in a ceremonial manner
!!!PDT:	1932
!!!OTL: No_12_Song_for_the_Person_to_be_Adopted.krn
!!!REG: Wisconsin
!!!LANG: Non-Tone
!!!LING_GROUP: Algonquin
**kern
*staff1
=1-
*clefF4
*k[b-e-]
*M2/4
8c\L
8c\J
8c\L
8c\J
=2
4c\
8c\L
8c\J
=3||
*M3/4
16c\LL
16c\
16c\
16c\JJ
8c\L
8A\J
8G\
8r
=4||
*M2/4
8B-\L
8B-\J
8B-\L
8G\J
=5
4F\
8F\L
8F\J
=6||
*M3/4
16F\LL
16F\
16F\
16F\JJ
8F\L
8F\J
8F\
8r
=7||
*M2/4
8G\L
8G\J
8G\L
8B-\J
=8
4B-\
8B-\L
8B-\J
=9||
*M3/4
16B-\LL
16B-\
16B-\
16B-\JJ
8B-\L
8A\J
8G\
8r
=10||
*M2/4
8B-\L
8B-\J
8B-\L
8G\J
=11
4F\
8F\L
8F\J
=12||
*M3/4
16G\LL
16F\
16F\
16F\JJ
8E-\L
8D\J
8C/
8r
=13||
*M2/4
8D\L
8D\J
8D/L
8C/J
=14
4C/
8C/L
8C/J
=15||
*M3/4
16D/LL
16C/
16C/
16C/JJ
8C/L
8BB-/J
4FF/
==
*-
